X:3
T:House On The Hill, The
R:reel
M:4/4
L:1/8
K:Amaj
|cE~E2 c2cB | Acec BcAB | cE~E2 c2cB | Acec B2AB |
|cE~E2 c2cB | Acec BcAB | cE~E2 c2cB | Acec B2AB |
|FD (3DDD DFAF | EGBG ABAG   | FD (3DDD DFAF | EGBG A2AG |
|F2EF DFAF     | EGBG ABAG   | FD (3DDD DFAF | EGBG A2AG |
|ec (3ccc ecac | d~B3 Bcdf   | ec (3ccc ecac | dBGB A2cd |
|e2ef ec (3ccc | dB (3BBB Bcdf| ec (3ccc ecac | dBGB A2AB |
